svgs/light/cards-blank.svg

<svg xmlns="http://www.w3.org/2000/svg" viewBox="0 0 640 512"><!--! Font Awesome Pro 6.3.0 by @fontawesome - https://fontawesome.com License - https://fontawesome.com/license (Commercial License) Copyright 2023 Fonticons, Inc. --><path d="M174.8 484.7C174.7 484.5 174.5 484.2 174.3 483.9L7.629 195.2C7.464 194.9 7.302 194.6 7.142 194.3C-7.774 167.8 1.408 134.1 27.85 118.8L220.7 7.468C247.3-7.906 281.4 1.218 296.8 27.85L463.8 317.1C479.1 343.6 470.1 377.5 443.8 392.1C443.6 393.1 443.3 393.2 443.1 393.4L250.8 504.4C250.6 504.5 250.4 504.6 250.1 504.8C223.8 519.7 190.3 510.8 174.8 484.7V484.7zM234.4 476.9L234.5 476.8L427.4 365.5L427.5 365.4C438.7 358.7 442.5 344.2 435.9 332.9L269.2 44.13C262.6 32.66 247.9 28.72 236.4 35.35L44.13 146.4C32.8 152.9 28.82 167.3 35.09 178.7L35.18 178.9L202.2 468.2C202.2 468.2 202.3 468.3 202.3 468.3C208.1 479.3 223.2 483.1 234.4 476.9V476.9zM357.3 479.8C358.2 479.9 359.1 480 360 480H584C597.3 480 608 469.3 608 456V119.1C608 106.7 597.3 95.1 584 95.1H373L354.7 64.25C356.5 64.08 358.2 63.1 360 63.1H584C614.9 63.1 640 89.07 640 119.1V456C640 486.9 614.9 512 584 512H360C346.4 512 333.8 507.1 324.1 498.1L357.3 479.8z"/></svg>

<svg xmlns="http://www.w3.org/2000/svg" viewBox="0 0 640 512"><!--! Font Awesome Pro 6.4.0 by @fontawesome - https://fontawesome.com License - https://fontawesome.com/license (Commercial License) Copyright 2023 Fonticons, Inc. --><path d="M202.3 468.3c6.7 11 20.9 14.8 32.1 8.6c0 0 .1 0 .1-.1L427.4 365.5c0 0 .1 0 .1-.1c11.2-6.7 15-21.2 8.4-32.6L269.2 44.1c-6.6-11.5-21.3-15.4-32.8-8.8L44.1 146.4c-11.3 6.5-15.3 20.9-9 32.3c0 .1 .1 .1 .1 .2l167 289.3c0 .1 .1 .1 .1 .2zm-27.5 16.4c-.2-.3-.3-.6-.5-.9L7.6 195.2c-.2-.3-.3-.6-.5-.9c-14.9-26.5-5.7-60.2 20.7-75.5L220.7 7.5c26.6-15.4 60.7-6.3 76.1 20.4l167 289.3c15.3 26.5 6.3 60.3-20 75.8c-.2 .1-.5 .3-.7 .4l-192.3 111c-.2 .1-.5 .3-.7 .4c-26.4 14.9-59.8 6-75.3-20zM324.1 499l33.2-19.1c.9 .1 1.8 .2 2.7 .2H584c13.3 0 24-10.7 24-24V120c0-13.3-10.7-24-24-24H373L354.7 64.2c1.7-.2 3.5-.2 5.3-.2H584c30.9 0 56 25.1 56 56V456c0 30.9-25.1 56-56 56H360c-13.7 0-26.2-4.9-35.9-13z"/></svg>
